school/img/menu/5.svg

<svg width="60" height="60" viewBox="0 0 60 60" fill="none" xmlns="http://www.w3.org/2000/svg">
<path d="M59.184 51.8738L47.4996 40.1914C46.9722 39.6641 46.2573 39.3712 45.5072 39.3712H43.5969C46.8316 35.2348 48.7536 30.0322 48.7536 24.3726C48.7536 10.9091 37.8426 0 24.3768 0C10.911 0 0 10.9091 0 24.3726C0 37.8362 10.911 48.7452 24.3768 48.7452C30.0374 48.7452 35.2409 46.8236 39.3779 43.5895V45.4995C39.3779 46.2494 39.6709 46.9642 40.1982 47.4915L51.8827 59.1739C52.9843 60.2754 54.7657 60.2754 55.8556 59.1739L59.1723 55.8578C60.2739 54.7564 60.2739 52.9753 59.184 51.8738ZM24.3768 39.3712C16.091 39.3712 9.37569 32.6687 9.37569 24.3726C9.37569 16.0883 16.0793 9.37409 24.3768 9.37409C32.6625 9.37409 39.3779 16.0766 39.3779 24.3726C39.3779 32.657 32.6743 39.3712 24.3768 39.3712Z" fill="#0357ED"/>
</svg>

<svg width="60" height="60" fill="none" xmlns="http://www.w3.org/2000/svg"><path d="M59.184 51.874L47.5 40.19a2.81 2.81 0 00-1.993-.82h-1.91a24.25 24.25 0 005.157-14.998C48.754 10.909 37.843 0 24.377 0S0 10.91 0 24.373c0 13.463 10.911 24.372 24.377 24.372a24.26 24.26 0 0015-5.155v1.91c0 .75.294 1.464.821 1.992l11.685 11.682a2.801 2.801 0 003.973 0l3.316-3.316a2.825 2.825 0 00.012-3.984zM24.377 39.37c-8.286 0-15.001-6.702-15.001-14.998 0-8.285 6.703-14.999 15-14.999 8.287 0 15.002 6.703 15.002 14.999 0 8.284-6.704 14.998-15.001 14.998z" fill="#0357ED"/></svg>
